icons/VIM-Dark.svg

<svg xmlns="http://www.w3.org/2000/svg" width="256" height="256" fill="none" viewBox="0 0 256 256"><rect width="256" height="256" fill="#242938" rx="60"/><path fill="#019833" d="M135.498 39.4619C128.076 32.03 116.032 32.03 108.61 39.462L33.4081 114.765C26.0001 122.183 26.0001 134.199 33.4081 141.617L108.186 216.495C115.608 223.927 127.652 223.927 135.074 216.495L210.276 141.191C217.684 133.773 217.684 121.757 210.276 114.339L135.498 39.4619Z"/><path fill="#fff" d="M161.769 40.7104L159.083 43.3988V53.2693L161.435 55.6235H173.86V65.1606L91.672 148.576V55.7425H105.331L108.133 52.9365V42.9482L105.546 40.9465H33.6672L31.3158 43.3007V53.5048L33.7069 55.8988H46.2085V216.316C46.2085 222.361 50.6553 227.485 56.6396 228.335V228.335C60.4891 228.883 64.3678 227.553 67.0718 224.759L235 51.2474V43.4001L232.315 40.7117L161.769 40.7104Z"/></svg>

<svg xmlns="http://www.w3.org/2000/svg" width="256" height="256" fill="none" viewBox="0 0 256 256"><rect width="256" height="256" fill="#242938" rx="60"/><path fill="#019833" d="M135.5 39.46a19 19 0 0 0-26.89 0l-75.2 75.3a19 19 0 0 0 0 26.86l74.78 74.88a19 19 0 0 0 26.88 0l75.2-75.3a19 19 0 0 0 0-26.86z"/><path fill="#fff" d="m161.77 40.71-2.69 2.69v9.87l2.35 2.35h12.43v9.54l-82.19 83.42V55.74h13.66l2.8-2.8v-10l-2.58-2H33.67l-2.35 2.36v10.2l2.39 2.4h12.5v160.42a12.14 12.14 0 0 0 20.86 8.44L235 51.25V43.4l-2.69-2.69z"/></svg>
